X: 179
T:Suite de Loudac
M:4/4
L:1/8
Q:80
C:trad
O:France
A:Bretagne
W:Mon pre a fait btir maison
W:Je regrette nom de nom
W:Je regrette nom de nom
W:Les annes qui s'en vont
W:Je regrette nom de d'l
W:Le bon temps qui s'en va
K:C
|:AG Ac BA G2|AB cA AG A2:|
|:AB c2 BA G2|1c2 Bc dd c2:|2cc BA G2 A2|
|:AB c2 BA G2|1c2 Bc dd c2:|2cc BA G2 A2||
W:
W: From "Falaleiro" http://home.t-online.de/home/pheld/homepage.htm
